src/icons/solid/document-download.svg

<svg width="20" height="20" viewBox="0 0 20 20" fill="none" xmlns="http://www.w3.org/2000/svg">
<path fill-rule="evenodd" clip-rule="evenodd" d="M6 2C4.89543 2 4 2.89543 4 4V16C4 17.1046 4.89543 18 6 18H14C15.1046 18 16 17.1046 16 16V7.41421C16 6.88378 15.7893 6.37507 15.4142 6L12 2.58579C11.6249 2.21071 11.1162 2 10.5858 2H6ZM11 8C11 7.44772 10.5523 7 10 7C9.44772 7 9 7.44772 9 8V11.5858L7.70711 10.2929C7.31658 9.90237 6.68342 9.90237 6.29289 10.2929C5.90237 10.6834 5.90237 11.3166 6.29289 11.7071L9.29289 14.7071C9.68342 15.0976 10.3166 15.0976 10.7071 14.7071L13.7071 11.7071C14.0976 11.3166 14.0976 10.6834 13.7071 10.2929C13.3166 9.90237 12.6834 9.90237 12.2929 10.2929L11 11.5858V8Z" fill="#4A5568"/>
</svg>

<svg xmlns="http://www.w3.org/2000/svg" viewBox="0 0 20 20" fill="currentColor">
  <path fill-rule="evenodd" d="M6 2a2 2 0 00-2 2v12a2 2 0 002 2h8a2 2 0 002-2V7.414A2 2 0 0015.414 6L12 2.586A2 2 0 0010.586 2H6zm5 6a1 1 0 10-2 0v3.586l-1.293-1.293a1 1 0 10-1.414 1.414l3 3a1 1 0 001.414 0l3-3a1 1 0 00-1.414-1.414L11 11.586V8z" clip-rule="evenodd"/>
</svg>
